icons/snowflake-light.svg

<svg width="256" height="256" viewBox="0 0 256 256" fill="none" xmlns="http://www.w3.org/2000/svg" id="snowflake">
<path d="M196 0H60C26.8629 0 0 26.8629 0 60V196C0 229.137 26.8629 256 60 256H196C229.137 256 256 229.137 256 196V60C256 26.8629 229.137 0 196 0Z" fill="#F4F2ED"/>
<g clip-path="url(#clip0_2_12)">
<path fill-rule="evenodd" clip-rule="evenodd" d="M211.296 115.352L188.902 128.514L211.296 141.565C212.635 142.354 213.809 143.405 214.75 144.657C215.691 145.909 216.381 147.338 216.78 148.862C217.18 150.387 217.281 151.976 217.079 153.54C216.876 155.104 216.373 156.612 215.599 157.978C214.825 159.344 213.795 160.541 212.567 161.501C211.34 162.461 209.939 163.165 208.445 163.573C206.95 163.98 205.392 164.084 203.859 163.877C202.325 163.67 200.847 163.157 199.508 162.368L159.384 138.791C157.545 137.706 156.027 136.134 154.991 134.242C153.955 132.351 153.439 130.209 153.497 128.042C153.528 127.104 153.67 126.173 153.918 125.269C154.739 122.237 156.692 119.653 159.357 118.071L199.48 94.5766C200.825 93.7838 202.311 93.2693 203.851 93.0626C205.391 92.8559 206.956 92.961 208.456 93.3719C209.957 93.7828 211.363 94.4915 212.594 95.4574C213.826 96.4233 214.858 97.6274 215.633 99.0008C216.411 100.362 216.916 101.868 217.119 103.43C217.322 104.992 217.219 106.58 216.816 108.101C216.412 109.623 215.716 111.047 214.769 112.292C213.821 113.536 212.641 114.577 211.296 115.352ZM190.099 179.149L149.989 155.614C148.194 154.563 146.161 154.01 144.092 154.009C142.023 154.008 139.99 154.56 138.195 155.609C136.399 156.657 134.904 158.167 133.858 159.988C132.812 161.809 132.251 163.877 132.232 165.988V213.003C132.336 216.127 133.625 219.088 135.828 221.26C138.032 223.432 140.976 224.647 144.04 224.647C147.104 224.647 150.049 223.432 152.252 221.26C154.455 219.088 155.745 216.127 155.849 213.003V186.652L178.297 199.814C179.636 200.604 181.115 201.118 182.648 201.326C184.182 201.533 185.741 201.431 187.236 201.024C188.731 200.617 190.132 199.913 191.361 198.954C192.589 197.994 193.62 196.797 194.395 195.431C195.17 194.065 195.674 192.557 195.877 190.993C196.081 189.428 195.98 187.838 195.581 186.313C195.182 184.789 194.493 183.359 193.552 182.106C192.611 180.853 191.438 179.801 190.099 179.011V179.149ZM143.87 133.16L127.146 150.011C126.574 150.553 125.833 150.873 125.053 150.912H120.144C119.366 150.865 118.627 150.546 118.05 150.011L101.422 133.105C100.901 132.526 100.594 131.781 100.551 130.996V126.004C100.596 125.216 100.903 124.467 101.422 123.882L118.05 106.975C118.628 106.444 119.367 106.131 120.144 106.088H125.053C125.831 106.125 126.572 106.439 127.146 106.975L143.816 123.882C144.33 124.469 144.632 125.217 144.672 126.004V130.996C144.635 131.779 144.332 132.524 143.816 133.105L143.87 133.16ZM130.546 128.472C130.481 127.664 130.151 126.901 129.607 126.309L124.781 121.441C124.202 120.91 123.463 120.597 122.687 120.553H122.51C121.737 120.594 121.002 120.908 120.43 121.441L115.603 126.309C115.085 126.904 114.782 127.663 114.746 128.458V128.639C114.781 129.422 115.084 130.168 115.603 130.747L120.457 135.601C121.03 136.132 121.764 136.445 122.537 136.489H122.714C123.491 136.445 124.229 136.132 124.808 135.601L129.635 130.705C130.156 130.126 130.468 129.382 130.518 128.597L130.546 128.472ZM55.098 77.8784L95.2216 101.345C97.0181 102.395 99.0527 102.947 101.123 102.947C103.194 102.947 105.228 102.395 107.025 101.344C108.821 100.294 110.317 98.7831 111.364 96.9609C112.411 95.1386 112.972 93.0688 112.992 90.9568V43.9828C112.888 40.8589 111.599 37.8985 109.396 35.7261C107.192 33.5537 104.248 32.3394 101.184 32.3394C98.1194 32.3394 95.175 33.5537 92.9718 35.7261C90.7686 37.8985 89.479 40.8589 89.375 43.9828V70.3337L66.8998 57.1582C65.5607 56.3678 64.082 55.8541 62.5483 55.6466C61.0145 55.4391 59.4557 55.5417 57.9608 55.9487C56.4659 56.3556 55.0643 57.0589 53.8359 58.0184C52.6075 58.9779 51.5764 60.1749 50.8015 61.5408C50.0265 62.9068 49.523 64.4151 49.3195 65.9796C49.116 67.544 49.2167 69.1341 49.6156 70.6589C50.0146 72.1837 50.7041 73.6134 51.6448 74.8664C52.5854 76.1194 53.7588 77.1712 55.098 77.9616V77.8784ZM143.15 102.953C145.519 103.145 147.889 102.598 149.948 101.386L190.058 77.8091C191.397 77.0186 192.571 75.9669 193.511 74.7139C194.452 73.4609 195.141 72.0311 195.54 70.5063C195.939 68.9815 196.04 67.3915 195.836 65.827C195.633 64.2625 195.129 62.7542 194.354 61.3883C193.58 60.0223 192.548 58.8254 191.32 57.8659C190.092 56.9064 188.69 56.2031 187.195 55.7961C184.176 54.9742 180.961 55.4093 178.256 57.0057L155.808 70.2921V43.9412C155.704 40.8173 154.415 37.8568 152.211 35.6845C150.008 33.5121 147.064 32.2978 143.999 32.2978C140.935 32.2978 137.991 33.5121 135.788 35.6845C133.584 37.8568 132.295 40.8173 132.191 43.9412V90.9568C132.187 94.0007 133.317 96.9326 135.351 99.1596C137.385 101.387 140.173 102.743 143.15 102.953ZM102.074 154.047C99.7046 153.85 97.3326 154.397 95.276 155.614L55.098 179.094C52.3935 180.69 50.4214 183.317 49.6156 186.397C48.8099 189.476 49.2364 192.756 50.8015 195.515C52.3665 198.273 54.9418 200.285 57.9608 201.107C60.9798 201.929 64.1953 201.494 66.8998 199.897L89.375 186.736V213.087C89.479 216.21 90.7686 219.171 92.9718 221.343C95.175 223.516 98.1194 224.73 101.184 224.73C104.248 224.73 107.192 223.516 109.396 221.343C111.599 219.171 112.888 216.21 112.992 213.087V165.988C112.986 162.959 111.857 160.045 109.832 157.83C107.807 155.615 105.036 154.264 102.074 154.047ZM91.197 132.037C91.9715 129.439 91.8548 126.649 90.8661 124.128C89.8774 121.606 88.0758 119.504 85.7584 118.168L45.6755 94.6044C42.9685 93.0228 39.7581 92.5974 36.7448 93.421C33.7315 94.2447 31.1598 96.2505 29.5907 99.0008C28.814 100.362 28.3095 101.867 28.1065 103.428C27.9035 104.989 28.006 106.576 28.4081 108.097C28.8102 109.617 29.5038 111.042 30.449 112.287C31.3942 113.532 32.572 114.574 33.9145 115.352L56.3081 128.514L33.9145 141.565C32.5753 142.352 31.4014 143.401 30.4597 144.652C29.518 145.902 28.827 147.33 28.4261 148.853C28.0253 150.375 27.9224 151.964 28.1234 153.527C28.3244 155.091 28.8253 156.599 29.5975 157.965C30.3698 159.331 31.3982 160.528 32.6242 161.489C33.8501 162.449 35.2495 163.154 36.7425 163.563C38.2355 163.972 39.7928 164.077 41.3255 163.872C42.8582 163.667 44.3364 163.156 45.6755 162.368L85.7584 138.791C88.3395 137.321 90.2782 134.907 91.1834 132.037H91.197ZM217.849 54.0655H216.041V56.3261H217.836C218.665 56.3261 219.196 55.9378 219.196 55.2166C219.196 54.4954 218.706 54.0655 217.836 54.0655H217.849ZM213.852 51.9851H217.931C220.134 51.9851 221.602 53.2195 221.602 55.1334C221.609 55.6661 221.477 56.1912 221.219 56.6543C220.961 57.1175 220.586 57.5021 220.134 57.7685L221.724 60.0985V60.57H219.427L217.836 58.351H216.041V60.57H213.838L213.852 51.9851ZM225.137 56.4509C225.203 55.401 225.055 54.3485 224.702 53.3601C224.348 52.3717 223.798 51.4689 223.084 50.7088C222.371 49.9488 221.511 49.348 220.558 48.9446C219.606 48.5412 218.582 48.344 217.55 48.3653C213.05 48.3653 210.059 51.68 210.059 56.4509C210.059 60.9999 213.05 64.5226 217.55 64.5226C218.582 64.5479 219.608 64.3539 220.562 63.9529C221.516 63.552 222.378 62.9528 223.093 62.1937C223.808 61.4345 224.36 60.5318 224.714 59.5431C225.068 58.5545 225.217 57.5014 225.151 56.4509H225.137ZM227.014 56.4509C227.014 61.8459 223.478 66.3533 217.496 66.3533C211.513 66.3533 208.128 61.8043 208.128 56.4509C208.128 51.0975 211.622 46.5485 217.496 46.5485C223.37 46.5485 227 51.042 227 56.4509H227.014Z" fill="#29B5E8"/>
</g>
<defs>
<clipPath id="clip0_2_12">
<rect width="199" height="193" fill="white" transform="translate(28 32)"/>
</clipPath>
</defs>
</svg>

<svg xmlns="http://www.w3.org/2000/svg" id="snowflake" width="256" height="256" fill="none"><path fill="#F4F2ED" d="M196 0H60C26.863 0 0 26.863 0 60v136c0 33.137 26.863 60 60 60h136c33.137 0 60-26.863 60-60V60c0-33.137-26.863-60-60-60"/><g clip-path="url(#clip0_2_12)"><path fill="#29B5E8" fill-rule="evenodd" d="m211.296 115.352-22.394 13.162 22.394 13.051a11.9 11.9 0 0 1 3.454 3.092 12.1 12.1 0 0 1 2.03 4.205c.4 1.525.501 3.114.299 4.678a12.2 12.2 0 0 1-1.48 4.438 11.9 11.9 0 0 1-3.032 3.523 11.7 11.7 0 0 1-4.122 2.072 11.6 11.6 0 0 1-4.586.304 11.6 11.6 0 0 1-4.351-1.509l-40.124-23.577a11.9 11.9 0 0 1-4.393-4.549 12.23 12.23 0 0 1-1.494-6.2 12 12 0 0 1 .421-2.773 12 12 0 0 1 5.439-7.198l40.123-23.494a11.7 11.7 0 0 1 4.371-1.514 11.6 11.6 0 0 1 4.605.309c1.501.41 2.907 1.12 4.138 2.085a12 12 0 0 1 3.039 3.544 12.1 12.1 0 0 1 1.486 4.429c.203 1.562.1 3.15-.303 4.671a12 12 0 0 1-2.047 4.191 11.7 11.7 0 0 1-3.473 3.06m-21.197 63.797-40.11-23.535a11.7 11.7 0 0 0-5.897-1.605 11.67 11.67 0 0 0-5.897 1.6 11.96 11.96 0 0 0-4.337 4.379 12.3 12.3 0 0 0-1.626 6v47.015a12.16 12.16 0 0 0 3.596 8.257 11.7 11.7 0 0 0 8.212 3.387c3.064 0 6.009-1.215 8.212-3.387a12.17 12.17 0 0 0 3.597-8.257v-26.351l22.448 13.162a11.57 11.57 0 0 0 8.939 1.21 11.7 11.7 0 0 0 4.125-2.07 12 12 0 0 0 3.034-3.523 12.24 12.24 0 0 0 1.186-9.118 12.1 12.1 0 0 0-2.029-4.207 11.9 11.9 0 0 0-3.453-3.095zM143.87 133.16l-16.724 16.851a3.28 3.28 0 0 1-2.093.901h-4.909a3.38 3.38 0 0 1-2.094-.901l-16.628-16.906a3.43 3.43 0 0 1-.871-2.109v-4.992a3.5 3.5 0 0 1 .871-2.122l16.628-16.907a3.37 3.37 0 0 1 2.094-.887h4.909a3.3 3.3 0 0 1 2.093.887l16.67 16.907a3.5 3.5 0 0 1 .856 2.122v4.992a3.42 3.42 0 0 1-.856 2.109zm-13.324-4.688a3.63 3.63 0 0 0-.939-2.163l-4.826-4.868a3.38 3.38 0 0 0-2.094-.888h-.177a3.3 3.3 0 0 0-2.08.888l-4.827 4.868a3.52 3.52 0 0 0-.857 2.149v.181c.035.783.338 1.529.857 2.108l4.854 4.854a3.34 3.34 0 0 0 2.08.888h.177a3.38 3.38 0 0 0 2.094-.888l4.827-4.896a3.5 3.5 0 0 0 .883-2.108zM55.098 77.878l40.124 23.467a11.7 11.7 0 0 0 5.901 1.602c2.071 0 4.105-.552 5.902-1.603a12 12 0 0 0 4.339-4.383 12.3 12.3 0 0 0 1.628-6.004V43.983a12.16 12.16 0 0 0-3.596-8.257 11.7 11.7 0 0 0-8.212-3.387 11.7 11.7 0 0 0-8.212 3.387 12.16 12.16 0 0 0-3.597 8.257v26.35L66.9 57.159a11.6 11.6 0 0 0-4.352-1.511 11.6 11.6 0 0 0-4.587.302 11.7 11.7 0 0 0-4.125 2.07 12 12 0 0 0-3.036 3.52 12.2 12.2 0 0 0-1.482 4.439 12.3 12.3 0 0 0 .297 4.679 12.1 12.1 0 0 0 2.029 4.207 11.9 11.9 0 0 0 3.453 3.096zm88.052 25.075a11.55 11.55 0 0 0 6.798-1.567l40.11-23.577a11.9 11.9 0 0 0 3.453-3.095 12.1 12.1 0 0 0 2.029-4.208 12.24 12.24 0 0 0-1.186-9.118 11.9 11.9 0 0 0-3.034-3.522 11.7 11.7 0 0 0-4.125-2.07 11.58 11.58 0 0 0-8.939 1.21l-22.448 13.286v-26.35a12.16 12.16 0 0 0-3.597-8.257 11.7 11.7 0 0 0-8.212-3.387 11.7 11.7 0 0 0-8.211 3.386 12.16 12.16 0 0 0-3.597 8.257v47.016a12.14 12.14 0 0 0 3.16 8.203 11.68 11.68 0 0 0 7.799 3.793m-41.076 51.094c-2.37-.197-4.741.35-6.798 1.567l-40.178 23.48c-2.704 1.596-4.677 4.223-5.482 7.303a12.23 12.23 0 0 0 1.185 9.118c1.566 2.758 4.14 4.77 7.16 5.592 3.019.822 6.234.387 8.939-1.21l22.475-13.161v26.351a12.16 12.16 0 0 0 3.597 8.256 11.7 11.7 0 0 0 8.212 3.387c3.064 0 6.008-1.214 8.212-3.387a12.16 12.16 0 0 0 3.596-8.256v-47.099a12.13 12.13 0 0 0-3.16-8.158 11.67 11.67 0 0 0-7.758-3.783m-10.877-22.01a12.17 12.17 0 0 0-.33-7.909 11.87 11.87 0 0 0-5.109-5.96L45.676 94.604a11.6 11.6 0 0 0-8.931-1.183c-3.014.824-5.585 2.83-7.154 5.58a12.1 12.1 0 0 0-1.485 4.427c-.203 1.561-.1 3.148.302 4.669a12 12 0 0 0 2.041 4.19 11.8 11.8 0 0 0 3.465 3.065l22.394 13.162-22.394 13.051a11.8 11.8 0 0 0-3.454 3.087 12.1 12.1 0 0 0-2.034 4.201 12.24 12.24 0 0 0 1.172 9.112 11.9 11.9 0 0 0 3.026 3.524 11.7 11.7 0 0 0 4.118 2.074 11.55 11.55 0 0 0 4.584.309 11.6 11.6 0 0 0 4.35-1.504l40.082-23.577a11.87 11.87 0 0 0 5.425-6.754zm126.652-77.971h-1.808v2.26h1.795c.829 0 1.36-.388 1.36-1.11 0-.72-.49-1.15-1.36-1.15zm-3.997-2.08h4.079c2.203 0 3.671 1.233 3.671 3.147a3.04 3.04 0 0 1-.383 1.521 2.97 2.97 0 0 1-1.085 1.114l1.59 2.33v.472h-2.297l-1.591-2.219h-1.795v2.219h-2.203zm11.285 4.465a7.75 7.75 0 0 0-.435-3.09 7.6 7.6 0 0 0-1.618-2.652 7.4 7.4 0 0 0-2.526-1.764 7.3 7.3 0 0 0-3.008-.58c-4.5 0-7.491 3.315-7.491 8.086 0 4.549 2.991 8.072 7.491 8.072a7.3 7.3 0 0 0 3.012-.57c.954-.401 1.816-1 2.531-1.76a7.6 7.6 0 0 0 1.621-2.65 7.7 7.7 0 0 0 .437-3.092zm1.877 0c0 5.395-3.536 9.902-9.518 9.902s-9.368-4.549-9.368-9.902c0-5.354 3.494-9.903 9.368-9.903S227 51.043 227 56.451z" clip-rule="evenodd"/></g><defs><clipPath id="clip0_2_12"><path fill="#fff" d="M28 32h199v193H28z"/></clipPath></defs></svg>
